humanity-icon-theme/Humanity/apps/16/invest-applet.svg

<?xml version="1.0" encoding="UTF-8" standalone="no"?>
<!-- Created with Inkscape (http://www.inkscape.org/) -->

<svg
   xmlns:svg="http://www.w3.org/2000/svg"
   xmlns="http://www.w3.org/2000/svg"
   xmlns:xlink="http://www.w3.org/1999/xlink"
   version="1.0"
   width="16"
   height="16"
   id="svg2">
  <defs
     id="defs4">
    <linearGradient
       id="linearGradient3308-4-6-931-761-6">
      <stop
         id="stop2919-1"
         style="stop-color:#ffffff;stop-opacity:1"
         offset="0" />
      <stop
         id="stop2921-0"
         style="stop-color:#ffffff;stop-opacity:0"
         offset="1" />
    </linearGradient>
    <linearGradient
       id="linearGradient3707">
      <stop
         id="stop3709"
         style="stop-color:#4c2a4e;stop-opacity:1"
         offset="0" />
      <stop
         id="stop3711"
         style="stop-color:#a85394;stop-opacity:1"
         offset="1" />
    </linearGradient>
    <linearGradient
       id="linearGradient3824">
      <stop
         id="stop3826"
         style="stop-color:#ffffff;stop-opacity:1"
         offset="0" />
      <stop
         id="stop3828"
         style="stop-color:#ffffff;stop-opacity:0"
         offset="1" />
    </linearGradient>
    <linearGradient
       id="linearGradient7209">
      <stop
         id="stop7211"
         style="stop-color:#e384c6;stop-opacity:1"
         offset="0" />
      <stop
         id="stop7213"
         style="stop-color:#c467be;stop-opacity:1"
         offset="0.26238" />
      <stop
         id="stop7215"
         style="stop-color:#93399a;stop-opacity:1"
         offset="0.704952" />
      <stop
         id="stop7217"
         style="stop-color:#48274f;stop-opacity:1"
         offset="1" />
    </linearGradient>
    <radialGradient
       cx="24"
       cy="9.488533"
       r="18.5"
       fx="24"
       fy="9.488533"
       id="radialGradient4508"
       xlink:href="#linearGradient3824"
       gradientUnits="userSpaceOnUse"
       gradientTransform="matrix(0,0.52841246,-1.4829018,0,26.457108,-7.6819019)" />
    <linearGradient
       x1="23.99999"
       y1="4.999989"
       x2="23.99999"
       y2="43"
       id="linearGradient4513"
       xlink:href="#linearGradient3308-4-6-931-761-6"
       gradientUnits="userSpaceOnUse"
       gradientTransform="matrix(0.3513515,0,0,0.3513515,-0.4324325,-0.43244088)" />
    <radialGradient
       cx="12.011247"
       cy="13.194963"
       r="19.99999"
       fx="12.011247"
       fy="13.194963"
       id="radialGradient4516"
       xlink:href="#linearGradient7209"
       gradientUnits="userSpaceOnUse"
       gradientTransform="matrix(2.1670072e-8,0.64620016,-0.93213214,0,15.876374,-3.8828059)" />
    <linearGradient
       x1="24"
       y1="44"
       x2="24"
       y2="3.8990016"
       id="linearGradient4518"
       xlink:href="#linearGradient3707"
       gradientUnits="userSpaceOnUse"
       gradientTransform="matrix(0.38461706,0,0,0.38462393,-1.2307775,-1.2311414)" />
  </defs>
  <rect
     width="15.000066"
     height="15.000334"
     rx="2"
     ry="2"
     x="0.5"
     y="0.49966621"
     id="rect5505-3"
     style="fill:url(#radialGradient4516);fill-opacity:1;stroke:url(#linearGradient4518);stroke-width:1;stroke-linecap:round;stroke-linejoin:round;stroke-miterlimit:4;stroke-opacity:1;stroke-dasharray:none;stroke-dashoffset:0" />
  <rect
     width="13"
     height="13.000011"
     rx="1"
     ry="1"
     x="1.5"
     y="1.4999889"
     id="rect6741"
     style="opacity:0.4;fill:none;stroke:url(#linearGradient4513);stroke-width:0.99999988;stroke-linecap:round;stroke-linejoin:round;stroke-miterlimit:4;stroke-opacity:1;stroke-dasharray:none;stroke-dashoffset:0" />
  <path
     d="M 7,11 3,7 1,11 1,14.233665 C 1,14.528486 1.4696924,15 1.7464731,15 L 14.280558,15 C 14.557338,15 15,14.528486 15,14.233665 L 15,6 11,5 7,11 z"
     id="path3782"
     style="opacity:0.4;fill:url(#radialGradient4508);fill-opacity:1;stroke:none" />
  <path
     d="M 6.1718754,10.369 2.888,6.140309 1,9 0.953125,11.555291 3,8 6.421875,12.451831 11,5 15,6.870169 15,5.7 10.444,3.691 6.1718754,10.369 z"
     id="path10957"
     style="font-size:medium;font-style:normal;font-variant:normal;font-weight:normal;font-stretch:normal;text-indent:0;text-align:start;text-decoration:none;line-height:normal;letter-spacing:normal;word-spacing:normal;text-transform:none;direction:ltr;block-progression:tb;writing-mode:lr-tb;text-anchor:start;opacity:0.8;color:#000000;fill:#ffffff;fill-opacity:1;stroke:none;stroke-width:3;marker:none;visibility:visible;display:inline;overflow:visible;enable-background:accumulate;font-family:Andale Mono;-inkscape-font-specification:Andale Mono" />
</svg>

<?xml version="1.0" encoding="UTF-8" standalone="no"?>
<!-- Created with Inkscape (http://www.inkscape.org/) -->
<svg id="svg2" xmlns="http://www.w3.org/2000/svg" height="16" width="16" version="1.0" xmlns:xlink="http://www.w3.org/1999/xlink">
 <defs id="defs4">
  <radialGradient id="radialGradient4508" gradientUnits="userSpaceOnUse" cy="9.4885" cx="24" gradientTransform="matrix(0 .52841 -1.4829 0 26.457 -7.6819)" r="18.5">
   <stop id="stop3826" style="stop-color:#fff" offset="0"/>
   <stop id="stop3828" style="stop-color:#fff;stop-opacity:0" offset="1"/>
  </radialGradient>
  <linearGradient id="linearGradient4513" y2="43" gradientUnits="userSpaceOnUse" x2="24" gradientTransform="matrix(.35135 0 0 .35135 -.43243 -.43244)" y1="5" x1="24">
   <stop id="stop2919-1" style="stop-color:#fff" offset="0"/>
   <stop id="stop2921-0" style="stop-color:#fff;stop-opacity:0" offset="1"/>
  </linearGradient>
  <radialGradient id="radialGradient4516" gradientUnits="userSpaceOnUse" cy="13.195" cx="12.011" gradientTransform="matrix(2.167e-8 .64620 -.93213 0 15.876 -3.8828)" r="20">
   <stop id="stop7211" style="stop-color:#e384c6" offset="0"/>
   <stop id="stop7213" style="stop-color:#c467be" offset=".26238"/>
   <stop id="stop7215" style="stop-color:#93399a" offset=".70495"/>
   <stop id="stop7217" style="stop-color:#48274f" offset="1"/>
  </radialGradient>
  <linearGradient id="linearGradient4518" y2="3.899" gradientUnits="userSpaceOnUse" x2="24" gradientTransform="matrix(.38462 0 0 .38462 -1.2308 -1.2311)" y1="44" x1="24">
   <stop id="stop3709" style="stop-color:#4c2a4e" offset="0"/>
   <stop id="stop3711" style="stop-color:#a85394" offset="1"/>
  </linearGradient>
 </defs>
 <rect id="rect5505-3" style="stroke-linejoin:round;stroke:url(#linearGradient4518);stroke-linecap:round;fill:url(#radialGradient4516)" rx="2" ry="2" height="15" width="15" y=".49967" x=".5"/>
 <rect id="rect6741" style="opacity:.4;stroke-linejoin:round;stroke:url(#linearGradient4513);stroke-linecap:round;fill:none" rx="1" ry="1" height="13" width="13" y="1.5" x="1.5"/>
 <path id="path3782" style="opacity:.4;fill:url(#radialGradient4508)" d="m7 11-4-4-2 4v3.234c0 0.294 0.4697 0.766 0.7465 0.766h12.534c0.277 0 0.72-0.472 0.72-0.766v-8.234l-4-1-4 6z"/>
 <path id="path10957" style="opacity:.8;block-progression:tb;text-indent:0;color:#000000;text-transform:none;fill:#fff" d="m6.1719 10.369-3.2839-4.2287-1.888 2.8597-0.04688 2.555 2.0469-3.555 3.4219 4.452 4.5781-7.452 4 1.8702v-1.1702l-4.556-2.009-4.2721 6.678z"/>
</svg>
